src/actions/16/align-horizontal-left.svg

<svg xmlns="http://www.w3.org/2000/svg" viewBox="0 0 16 16">
    <path d="M2 2v12h1V2H2zm2 0v5h10V2H4zm1 1h8v3H5V3zM4 9v5h5V9H4zm1 1h3v3H5v-3z" style="fill:currentColor;fill-opacity:1;stroke:none;color:#050505;opacity:.7"/>
</svg>

<svg xmlns="http://www.w3.org/2000/svg" viewBox="0 0 16 16">
  <defs id="defs3051">
    <style type="text/css" id="current-color-scheme">
      .ColorScheme-Text {
        color:#363636;
      }
      </style>
  </defs>
 <path style="fill:currentColor;fill-opacity:1;stroke:none" 
       d="M 2 2 L 2 14 L 3 14 L 3 2 L 2 2 z M 4 2 L 4 7 L 14 7 L 14 2 L 4 2 z M 5 3 L 13 3 L 13 6 L 5 6 L 5 3 z M 4 9 L 4 14 L 9 14 L 9 9 L 4 9 z M 5 10 L 8 10 L 8 13 L 5 13 L 5 10 z "
     class="ColorScheme-Text"
     />
</svg>
